X: 34640
T: Road To Ballymote, The
R: reel
M: 4/4
K: Gmajor
DGBd d2 Bd|d2 Bd cA A2|DGBc dBeB|dBAc BG G2|
DGBd d2 Bd|d2 Bd cA A2|DGBc dBeB|dBAc BG G2||
g3d efge|dB B2 cA A2|g3d efge|dBAc BG G2|
g3d efge|dB B2 cA A2|GABc dgfa|gedc BG G2||

